src/img/sprite/sprite.svg

<svg width="0" height="0" class="hidden">
    <symbol fill="none" xmlns="http://www.w3.org/2000/svg" viewBox="0 0 26 21" id="Quote">
        <path d="M10.56 15.616C10.56 17.0453 10.0373 18.2507 8.992 19.232C7.968 20.2133 6.72 20.704 5.248 20.704C3.73333 20.704 2.47467 20.2133 1.472 19.232C0.490667 18.2507 0 17.0453 0 15.616C0 14.9333 0.096 14.208 0.288 13.44C0.48 12.672 0.864 11.68 1.44 10.464L6.4 0H11.2L8.544 11.584C9.14133 12.0107 9.62133 12.576 9.984 13.28C10.368 13.9627 10.56 14.7413 10.56 15.616ZM24.8 15.616C24.8 17.0453 24.2773 18.2507 23.232 19.232C22.1867 20.2133 20.9387 20.704 19.488 20.704C18.016 20.704 16.768 20.2133 15.744 19.232C14.7413 18.2507 14.24 17.0453 14.24 15.616C14.24 14.9333 14.336 14.208 14.528 13.44C14.72 12.672 15.1147 11.68 15.712 10.464L20.704 0H25.472L22.784 11.584C23.4027 12.0107 23.8933 12.576 24.256 13.28C24.6187 13.9627 24.8 14.7413 24.8 15.616Z" fill="#ABB2BF"></path>
    </symbol>
    <symbol fill="none" xmlns="http://www.w3.org/2000/svg" viewBox="0 0 10 7" id="arrow">
        <line x1="0.707107" y1="1.29289" x2="5.70711" y2="6.29289" stroke="#ABB2BF" stroke-width="2"></line>
        <line x1="4.29289" y1="6.29289" x2="9.29289" y2="1.29289" stroke="#ABB2BF" stroke-width="2"></line>
    </symbol>
    <symbol fill="none" xmlns="http://www.w3.org/2000/svg" viewBox="0 0 32 32" id="Email">
        <path d="M5.07187 9.20292C5.2168 8.57709 5.57307 8.01832 6.08232 7.6181C6.59158 7.21789 7.22365 6.99996 7.875 7H25.125C25.7764 6.99996 26.4084 7.21789 26.9177 7.6181C27.4269 8.01832 27.7832 8.57709 27.9281 9.20292L16.5 16.0865L5.07187 9.20292ZM5 10.8207V20.8847L13.3418 15.8442L5 10.8207ZM14.7189 16.6758L5.27456 22.3807C5.50791 22.8657 5.87619 23.2753 6.33656 23.5619C6.79693 23.8486 7.33044 24.0005 7.875 24H25.125C25.6695 24.0001 26.2028 23.8479 26.6629 23.561C27.123 23.274 27.491 22.8643 27.724 22.3793L18.2796 16.6744L16.5 17.7468L14.7189 16.6744V16.6758ZM19.6582 15.8457L28 20.8847V10.8207L19.6582 15.8442V15.8457Z" fill="#ABB2BF"></path>
    </symbol>
    <symbol fill="none" xmlns="http://www.w3.org/2000/svg" viewBox="0 0 32 32" id="Github">
        <path d="M15.5 6C9.69875 6 5 10.5882 5 16.2529C5 20.7899 8.00562 24.6219 12.1794 25.9804C12.7044 26.0701 12.9012 25.7625 12.9012 25.4934C12.9012 25.2499 12.8881 24.4425 12.8881 23.5838C10.25 24.058 9.5675 22.9558 9.3575 22.3791C9.23938 22.0843 8.7275 21.1743 8.28125 20.9308C7.91375 20.7386 7.38875 20.2644 8.26813 20.2516C9.095 20.2388 9.68563 20.9949 9.8825 21.3025C10.8275 22.8533 12.3369 22.4175 12.9406 22.1484C13.0325 21.4819 13.3081 21.0334 13.61 20.777C11.2737 20.5207 8.8325 19.6364 8.8325 15.7147C8.8325 14.5997 9.23938 13.6769 9.90875 12.9592C9.80375 12.7029 9.43625 11.6519 10.0138 10.2422C10.0138 10.2422 10.8931 9.97301 12.9012 11.2931C13.7413 11.0624 14.6338 10.947 15.5263 10.947C16.4188 10.947 17.3113 11.0624 18.1513 11.2931C20.1594 9.9602 21.0387 10.2422 21.0387 10.2422C21.6163 11.6519 21.2488 12.7029 21.1438 12.9592C21.8131 13.6769 22.22 14.5868 22.22 15.7147C22.22 19.6492 19.7656 20.5207 17.4294 20.777C17.81 21.0975 18.1381 21.7126 18.1381 22.6738C18.1381 24.0452 18.125 25.1474 18.125 25.4934C18.125 25.7625 18.3219 26.0829 18.8469 25.9804C20.9314 25.2935 22.7428 23.9854 24.026 22.2403C25.3092 20.4953 25.9996 18.4012 26 16.2529C26 10.5882 21.3013 6 15.5 6Z" fill="#ABB2BF"></path>
    </symbol>
    <symbol fill="none" xmlns="http://www.w3.org/2000/svg" viewBox="0 0 32 32" id="Landmark">
        <path d="M16.5 28C16.5 28 26 19.1156 26 12.375C26 9.8886 24.9991 7.50403 23.2175 5.74587C21.4359 3.98772 19.0196 3 16.5 3C13.9804 3 11.5641 3.98772 9.78249 5.74587C8.00089 7.50403 7 9.8886 7 12.375C7 19.1156 16.5 28 16.5 28ZM16.5 17.0625C15.2402 17.0625 14.032 16.5686 13.1412 15.6896C12.2504 14.8105 11.75 13.6182 11.75 12.375C11.75 11.1318 12.2504 9.93951 13.1412 9.06044C14.032 8.18136 15.2402 7.6875 16.5 7.6875C17.7598 7.6875 18.968 8.18136 19.8588 9.06044C20.7496 9.93951 21.25 11.1318 21.25 12.375C21.25 13.6182 20.7496 14.8105 19.8588 15.6896C18.968 16.5686 17.7598 17.0625 16.5 17.0625Z" fill="#ABB2BF"></path>
    </symbol>
    <symbol fill="none" xmlns="http://www.w3.org/2000/svg" viewBox="0 0 32 32" id="Linkedin">
        <path d="M4 5.719C4 4.7695 4.789 4 5.7625 4H26.2375C27.211 4 28 4.7695 28 5.719V26.281C28 27.2305 27.211 28 26.2375 28H5.7625C4.789 28 4 27.2305 4 26.281V5.719ZM11.4145 24.091V13.2535H7.813V24.091H11.4145ZM9.6145 11.773C10.87 11.773 11.6515 10.942 11.6515 9.901C11.629 8.8375 10.8715 8.029 9.6385 8.029C8.4055 8.029 7.6 8.839 7.6 9.901C7.6 10.942 8.3815 11.773 9.5905 11.773H9.6145ZM16.9765 24.091V18.0385C16.9765 17.7145 17.0005 17.3905 17.0965 17.1595C17.356 16.513 17.9485 15.8425 18.9445 15.8425C20.248 15.8425 20.7685 16.8355 20.7685 18.2935V24.091H24.37V17.875C24.37 14.545 22.594 12.997 20.224 12.997C18.313 12.997 17.4565 14.047 16.9765 14.7865V14.824H16.9525C16.9605 14.8115 16.9685 14.799 16.9765 14.7865V13.2535H13.3765C13.4215 14.2705 13.3765 24.091 13.3765 24.091H16.9765Z" fill="#ABB2BF"></path>
    </symbol>
    <symbol fill="none" xmlns="http://www.w3.org/2000/svg" viewBox="0 0 32 32" id="Telegram">
        <path d="M27 15.5C27 18.55 25.7884 21.4751 23.6317 23.6317C21.4751 25.7884 18.55 27 15.5 27C12.45 27 9.52494 25.7884 7.36827 23.6317C5.2116 21.4751 4 18.55 4 15.5C4 12.45 5.2116 9.52494 7.36827 7.36827C9.52494 5.2116 12.45 4 15.5 4C18.55 4 21.4751 5.2116 23.6317 7.36827C25.7884 9.52494 27 12.45 27 15.5ZM15.9126 12.4899C14.7942 12.9556 12.5574 13.9187 9.20519 15.3792C8.66181 15.5949 8.37575 15.8076 8.34987 16.0146C8.30675 16.3639 8.74519 16.5019 9.34175 16.6903L9.59331 16.7693C10.1798 16.9605 10.9704 17.1833 11.3801 17.1919C11.7539 17.2006 12.1693 17.0482 12.6279 16.7319C15.7602 14.6174 17.3774 13.5493 17.478 13.5263C17.5499 13.5091 17.6505 13.4889 17.7166 13.5493C17.7842 13.6083 17.777 13.7218 17.7698 13.752C17.7267 13.9374 16.006 15.5359 15.1162 16.3639C14.8387 16.6227 14.6418 16.8053 14.6016 16.8469C14.5129 16.9375 14.4228 17.0267 14.3313 17.1143C13.7851 17.6404 13.3768 18.0343 14.3529 18.6783C14.8229 18.9888 15.1996 19.2432 15.5747 19.4991C15.983 19.778 16.3912 20.0554 16.9202 20.4033C17.0539 20.4896 17.1833 20.583 17.3084 20.6721C17.7842 21.0114 18.214 21.3161 18.7416 21.2673C19.0492 21.2385 19.3669 20.951 19.5279 20.0885C19.9088 18.0516 20.6578 13.6399 20.8302 11.8214C20.8408 11.6703 20.8345 11.5184 20.8116 11.3686C20.798 11.2478 20.7395 11.1364 20.6477 11.0567C20.5169 10.9664 20.361 10.9196 20.2021 10.923C19.7708 10.9302 19.1052 11.1616 15.9126 12.4899Z" fill="#ABB2BF"></path>
    </symbol>
    <symbol aria-label="Threads" xmlns="http://www.w3.org/2000/svg" viewBox="0 0 192 192" id="threads">
        <path d="M141.537 88.9883C140.71 88.5919 139.87 88.2104 139.019 87.8451C137.537 60.5382 122.616 44.905 97.5619 44.745C97.4484 44.7443 97.3355 44.7443 97.222 44.7443C82.2364 44.7443 69.7731 51.1409 62.102 62.7807L75.881 72.2328C81.6116 63.5383 90.6052 61.6848 97.2286 61.6848C97.3051 61.6848 97.3819 61.6848 97.4576 61.6855C105.707 61.7381 111.932 64.1366 115.961 68.814C118.893 72.2193 120.854 76.925 121.825 82.8638C114.511 81.6207 106.601 81.2385 98.145 81.7233C74.3247 83.0954 59.0111 96.9879 60.0396 116.292C60.5615 126.084 65.4397 134.508 73.775 140.011C80.8224 144.663 89.899 146.938 99.3323 146.423C111.79 145.74 121.563 140.987 128.381 132.296C133.559 125.696 136.834 117.143 138.28 106.366C144.217 109.949 148.617 114.664 151.047 120.332C155.179 129.967 155.42 145.8 142.501 158.708C131.182 170.016 117.576 174.908 97.0135 175.059C74.2042 174.89 56.9538 167.575 45.7381 153.317C35.2355 139.966 29.8077 120.682 29.6052 96C29.8077 71.3178 35.2355 52.0336 45.7381 38.6827C56.9538 24.4249 74.2039 17.11 97.0132 16.9405C119.988 17.1113 137.539 24.4614 149.184 38.788C154.894 45.8136 159.199 54.6488 162.037 64.9503L178.184 60.6422C174.744 47.9622 169.331 37.0357 161.965 27.974C147.036 9.60668 125.202 0.195148 97.0695 0H96.9569C68.8816 0.19447 47.2921 9.6418 32.7883 28.0793C19.8819 44.4864 13.2244 67.3157 13.0007 95.9325L13 96L13.0007 96.0675C13.2244 124.684 19.8819 147.514 32.7883 163.921C47.2921 182.358 68.8816 191.806 96.9569 192H97.0695C122.03 191.827 139.624 185.292 154.118 170.811C173.081 151.866 172.51 128.119 166.26 113.541C161.776 103.087 153.227 94.5962 141.537 88.9883ZM98.4405 129.507C88.0005 130.095 77.1544 125.409 76.6196 115.372C76.2232 107.93 81.9158 99.626 99.0812 98.6368C101.047 98.5234 102.976 98.468 104.871 98.468C111.106 98.468 116.939 99.0737 122.242 100.233C120.264 124.935 108.662 128.946 98.4405 129.507Z"></path>
    </symbol>
    <symbol fill="none" xmlns="http://www.w3.org/2000/svg" viewBox="0 0 32 32" id="Twitter">
        <path d="M11.2249 26C19.9045 26 24.6526 18.6883 24.6526 12.3587C24.6526 12.1541 24.6526 11.9466 24.6439 11.742C25.5683 11.0617 26.3661 10.2194 27 9.25459C26.1365 9.64165 25.2215 9.89676 24.2846 10.0116C25.2715 9.41189 26.0106 8.46827 26.3646 7.35615C25.4374 7.91461 24.4226 8.30664 23.3646 8.51509C22.6533 7.74493 21.712 7.23473 20.6866 7.0635C19.6612 6.89228 18.6089 7.06959 17.6927 7.56797C16.7764 8.06635 16.0474 8.85799 15.6185 9.82026C15.1896 10.7825 15.0848 11.8617 15.3203 12.8907C13.444 12.795 11.6084 12.2995 9.93262 11.4362C8.25682 10.5728 6.77823 9.36104 5.59275 7.87935C4.99093 8.93611 4.80726 10.1861 5.07905 11.3756C5.35085 12.565 6.05772 13.6047 7.05612 14.2835C6.30796 14.2576 5.57625 14.0534 4.92 13.6872V13.753C4.92129 14.86 5.2985 15.9326 5.98788 16.7895C6.67726 17.6464 7.63651 18.2351 8.7035 18.4559C8.2985 18.5694 7.88014 18.6259 7.46006 18.624C7.16391 18.6249 6.86836 18.597 6.57744 18.5407C6.87901 19.4937 7.46621 20.3269 8.25679 20.9236C9.04738 21.5203 10.0018 21.8507 10.9863 21.8685C9.3138 23.2039 7.24789 23.9282 5.12125 23.9247C4.74652 23.9263 4.37206 23.9044 4 23.859C6.15843 25.258 8.66512 26.0008 11.2249 26Z" fill="#ABB2BF"></path>
    </symbol>
</svg>

<svg xmlns="http://www.w3.org/2000/svg" xmlns:xlink="http://www.w3.org/1999/xlink"><symbol id="ARRORW" viewBox="0 0 10 7"><path d="M.707 1.293l5 5m-1.414 0l5-5"/></symbol><symbol id="EMAIL" viewBox="0 0 32 32"><path d="M5.072 9.203a2.829 2.829 0 011.01-1.585C6.592 7.218 7.224 7 7.875 7h17.25c.651 0 1.283.218 1.793.618.509.4.865.96 1.01 1.585L16.5 16.087 5.072 9.203zM5 10.82v10.064l8.342-5.04L5 10.82zm9.719 5.855L5.275 22.38a2.887 2.887 0 002.6 1.619h17.25c.544 0 1.078-.152 1.538-.439.46-.287.828-.697 1.061-1.182l-9.444-5.705-1.78 1.073-1.781-1.073v.002zm4.94-.83L28 20.885V10.82l-8.342 5.023v.002z"/></symbol><symbol id="GITHUB" viewBox="0 0 32 32"><path d="M15.5 6C9.699 6 5 10.588 5 16.253c0 4.537 3.006 8.369 7.18 9.727.524.09.721-.218.721-.487 0-.243-.013-1.05-.013-1.91-2.638.475-3.32-.627-3.53-1.204-.119-.295-.63-1.205-1.077-1.448-.367-.192-.892-.667-.013-.68.827-.012 1.418.744 1.614 1.051.946 1.551 2.455 1.116 3.059.846.091-.666.367-1.115.669-1.371-2.336-.256-4.777-1.14-4.777-5.062 0-1.115.406-2.038 1.076-2.756-.105-.256-.473-1.307.105-2.717 0 0 .88-.269 2.887 1.051a9.964 9.964 0 012.625-.346c.893 0 1.785.115 2.625.346 2.008-1.333 2.888-1.05 2.888-1.05.577 1.409.21 2.46.105 2.716.67.718 1.076 1.628 1.076 2.756 0 3.934-2.454 4.806-4.79 5.062.38.32.708.936.708 1.897 0 1.371-.013 2.473-.013 2.82 0 .268.197.589.722.486a10.5 10.5 0 005.179-3.74A10.105 10.105 0 0026 16.253C26 10.588 21.301 6 15.5 6z"/></symbol><symbol id="LANDMARK" viewBox="0 0 32 32"><path d="M16.5 28S26 19.116 26 12.375c0-2.486-1-4.871-2.782-6.63A9.565 9.565 0 0016.5 3c-2.52 0-4.936.988-6.718 2.746A9.313 9.313 0 007 12.375C7 19.115 16.5 28 16.5 28zm0-10.938a4.783 4.783 0 01-3.359-1.372 4.657 4.657 0 01-1.391-3.315c0-1.243.5-2.435 1.391-3.315A4.782 4.782 0 0116.5 7.687c1.26 0 2.468.494 3.359 1.373a4.656 4.656 0 011.391 3.315c0 1.243-.5 2.435-1.391 3.315a4.783 4.783 0 01-3.359 1.373z"/></symbol><symbol id="LINKEDIN" viewBox="0 0 32 32"><path d="M4 5.719C4 4.769 4.789 4 5.763 4h20.475C27.21 4 28 4.77 28 5.719v20.562c0 .95-.789 1.719-1.762 1.719H5.762C4.79 28 4 27.23 4 26.281V5.719zm7.415 18.372V13.253H7.813v10.838h3.602zm-1.8-12.318c1.255 0 2.037-.831 2.037-1.872-.023-1.063-.78-1.872-2.013-1.872-1.233 0-2.039.81-2.039 1.872 0 1.041.782 1.872 1.99 1.872h.024zm7.362 12.318v-6.053c0-.323.023-.648.12-.878.259-.647.851-1.318 1.848-1.318 1.303 0 1.823.993 1.823 2.452v5.797h3.602v-6.216c0-3.33-1.776-4.878-4.146-4.878-1.911 0-2.768 1.05-3.247 1.79v.037h-.024c.008-.012.015-.025.024-.037v-1.534h-3.6c.044 1.018 0 10.838 0 10.838h3.6z"/></symbol><symbol id="QUOTE" viewBox="0 0 26 21"><path d="M10.56 15.616c0 1.43-.523 2.635-1.568 3.616-1.024.981-2.272 1.472-3.744 1.472-1.515 0-2.773-.49-3.776-1.472C.491 18.251 0 17.045 0 15.616c0-.683.096-1.408.288-2.176.192-.768.576-1.76 1.152-2.976L6.4 0h4.8L8.544 11.584a4.67 4.67 0 011.44 1.696c.384.683.576 1.461.576 2.336zm14.24 0c0 1.43-.523 2.635-1.568 3.616-1.045.981-2.293 1.472-3.744 1.472-1.472 0-2.72-.49-3.744-1.472-1.003-.981-1.504-2.187-1.504-3.616 0-.683.096-1.408.288-2.176.192-.768.587-1.76 1.184-2.976L20.704 0h4.768l-2.688 11.584c.619.427 1.11.992 1.472 1.696.363.683.544 1.461.544 2.336z"/></symbol><symbol id="TELEGRAM" viewBox="0 0 32 32"><path d="M27 15.5a11.5 11.5 0 11-23 0 11.5 11.5 0 0123 0zm-11.087-3.01a557.091 557.091 0 00-6.708 2.89c-.543.215-.83.428-.855.635-.043.349.395.487.992.675l.251.08c.587.19 1.377.413 1.787.422.374.009.79-.144 1.248-.46 3.132-2.115 4.75-3.183 4.85-3.206.072-.017.172-.037.239.023s.06.173.053.203c-.043.185-1.764 1.784-2.654 2.612-.277.259-.474.441-.514.483-.09.09-.18.18-.27.267-.547.526-.955.92.02 1.564.47.31.848.565 1.223.821.408.279.816.556 1.345.904.134.087.263.18.388.27.476.338.906.643 1.434.594.307-.029.625-.316.786-1.178.38-2.037 1.13-6.45 1.302-8.268.01-.15.005-.303-.018-.452a.485.485 0 00-.164-.312.756.756 0 00-.446-.134c-.431.007-1.097.239-4.29 1.567z"/></symbol><symbol id="THREADS" viewBox="0 0 192 192"><path class="x19hqcy" d="M141.537 88.988a66.667 66.667 0 00-2.518-1.143c-1.482-27.307-16.403-42.94-41.457-43.1h-.34c-14.986 0-27.449 6.396-35.12 18.036l13.779 9.452c5.73-8.695 14.724-10.548 21.348-10.548h.229c8.249.053 14.474 2.452 18.503 7.129 2.932 3.405 4.893 8.111 5.864 14.05-7.314-1.243-15.224-1.626-23.68-1.14-23.82 1.371-39.134 15.264-38.105 34.568.522 9.792 5.4 18.216 13.735 23.719 7.047 4.652 16.124 6.927 25.557 6.412 12.458-.683 22.231-5.436 29.049-14.127 5.178-6.6 8.453-15.153 9.899-25.93 5.937 3.583 10.337 8.298 12.767 13.966 4.132 9.635 4.373 25.468-8.546 38.376-11.319 11.308-24.925 16.2-45.488 16.351-22.809-.169-40.06-7.484-51.275-21.742C35.236 139.966 29.808 120.682 29.605 96c.203-24.682 5.63-43.966 16.133-57.317C56.954 24.425 74.204 17.11 97.013 16.94c22.975.17 40.526 7.52 52.171 21.847 5.71 7.026 10.015 15.86 12.853 26.162l16.147-4.308c-3.44-12.68-8.853-23.606-16.219-32.668C147.036 9.607 125.202.195 97.07 0h-.113C68.882.194 47.292 9.642 32.788 28.08 19.882 44.485 13.224 67.315 13.001 95.932L13 96v.067c.224 28.617 6.882 51.447 19.788 67.854C47.292 182.358 68.882 191.806 96.957 192h.113c24.96-.173 42.554-6.708 57.048-21.189 18.963-18.945 18.392-42.692 12.142-57.27-4.484-10.454-13.033-18.945-24.723-24.553zM98.44 129.507c-10.44.588-21.286-4.098-21.82-14.135-.397-7.442 5.296-15.746 22.461-16.735a99.978 99.978 0 015.79-.169c6.235 0 12.068.606 17.371 1.765-1.978 24.702-13.58 28.713-23.802 29.274z"/></symbol><symbol id="TWITTER" viewBox="0 0 32 32"><path d="M11.225 26c8.68 0 13.428-7.312 13.428-13.641 0-.205 0-.412-.01-.617A9.7 9.7 0 0027 9.255a9.448 9.448 0 01-2.715.757 4.81 4.81 0 002.08-2.656 9.298 9.298 0 01-3 1.16 4.7 4.7 0 00-2.678-1.452 4.656 4.656 0 00-2.994.504 4.771 4.771 0 00-2.075 2.252 4.876 4.876 0 00-.298 3.07 13.234 13.234 0 01-5.387-1.454 13.45 13.45 0 01-4.34-3.557 4.876 4.876 0 00-.514 3.497 4.808 4.808 0 001.977 2.908 4.717 4.717 0 01-2.136-.597v.066a4.855 4.855 0 001.068 3.037 4.714 4.714 0 002.715 1.666 4.674 4.674 0 01-2.126.085 4.796 4.796 0 001.68 2.383 4.67 4.67 0 002.73.945A9.372 9.372 0 014 23.858 13.272 13.272 0 0011.225 26z"/></symbol></svg>
